public/flags/AG.svg

<svg fill="none" height="53" viewBox="0 0 61 53" width="61" xmlns="http://www.w3.org/2000/svg" xmlns:xlink="http://www.w3.org/1999/xlink"><filter id="a" color-interpolation-filters="sRGB" filterUnits="userSpaceOnUse" height="24.5295" width="25.2857" x="17.8572" y="7.25"><feFlood flood-opacity="0" result="BackgroundImageFix"/><feColorMatrix in="SourceAlpha" type="matrix" values="0 0 0 0 0 0 0 0 0 0 0 0 0 0 0 0 0 0 127 0"/><feOffset/><feColorMatrix type="matrix" values="0 0 0 0 0 0 0 0 0 0 0 0 0 0 0 0 0 0 0.06 0"/><feBlend in2="BackgroundImageFix" mode="normal" result="effect1_dropShadow"/><feBlend in="SourceGraphic" in2="effect1_dropShadow" mode="normal" result="shape"/></filter><filter id="b" color-interpolation-filters="sRGB" filterUnits="userSpaceOnUse" height="11.3333" width="59" x="1" y="20"><feFlood flood-opacity="0" result="BackgroundImageFix"/><feColorMatrix in="SourceAlpha" type="matrix" values="0 0 0 0 0 0 0 0 0 0 0 0 0 0 0 0 0 0 127 0"/><feOffset/><feColorMatrix type="matrix" values="0 0 0 0 0 0 0 0 0 0 0 0 0 0 0 0 0 0 0.06 0"/><feBlend in2="BackgroundImageFix" mode="normal" result="effect1_dropShadow"/><feBlend in="SourceGraphic" in2="effect1_dropShadow" mode="normal" result="shape"/></filter><mask id="c" height="43" maskUnits="userSpaceOnUse" width="59" x="1" y="3"><rect fill="#fff" height="42.5" rx="4.24286" width="59" x="1" y="3"/></mask><mask id="d" height="43" maskUnits="userSpaceOnUse" width="59" x="1" y="3"><path clip-rule="evenodd" d="m1 3h59l-29.5 42.5z" fill="#fff" fill-rule="evenodd"/></mask><rect fill="#fff" height="42.5" rx="4.24286" width="59" x="1" y="3"/><g mask="url(#c)"><path d="m1 3h59v42.5h-59z" fill="#e2243b"/><path clip-rule="evenodd" d="m1 3h59l-29.5 42.5z" fill="#262626" fill-rule="evenodd"/><g mask="url(#d)"><g filter="url(#a)"><path clip-rule="evenodd" d="m30.5 26.375-4.8382 5.4045.3683-7.2717-7.2105.3714 5.359-4.8792-6.3214-5.6667 8.1729 1.4167-1.1491-8.5 5.619 7.0833 5.6191-7.0833-1.1491 8.5 8.1729-1.4167-6.3214 5.6667 5.359 4.8792-7.2105-.3714.3682 7.2717z" fill="#ffcf3c" fill-rule="evenodd"/></g><g filter="url(#b)"><path clip-rule="evenodd" d="m1 31.3333h59v-11.3333h-59z" fill="#1984d8" fill-rule="evenodd"/></g><path clip-rule="evenodd" d="m1 45.5h59v-14.1667h-59z" fill="#fff" fill-rule="evenodd"/></g></g></svg>

<svg width="61" height="53" viewBox="0 0 61 53" fill="none" xmlns="http://www.w3.org/2000/svg">
<rect x="1" y="3" width="59" height="42.5" rx="4.24286" fill="white"/>
<mask id="mask0" mask-type="alpha" maskUnits="userSpaceOnUse" x="1" y="3" width="59" height="43">
<rect x="1" y="3" width="59" height="42.5" rx="4.24286" fill="white"/>
</mask>
<g mask="url(#mask0)">
<rect x="1" y="3" width="59" height="42.5" fill="#E2243B"/>
<path fill-rule="evenodd" clip-rule="evenodd" d="M1 3H60L30.5 45.5L1 3Z" fill="#262626"/>
<mask id="mask1" mask-type="alpha" maskUnits="userSpaceOnUse" x="1" y="3" width="59" height="43">
<path fill-rule="evenodd" clip-rule="evenodd" d="M1 3H60L30.5 45.5L1 3Z" fill="white"/>
</mask>
<g mask="url(#mask1)">
<g filter="url(#filter0_d)">
<path fill-rule="evenodd" clip-rule="evenodd" d="M30.5 26.375L25.6618 31.7795L26.0301 24.5078L18.8196 24.8792L24.1786 20L17.8572 14.3333L26.0301 15.75L24.881 7.25L30.5 14.3333L36.1191 7.25L34.97 15.75L43.1429 14.3333L36.8215 20L42.1805 24.8792L34.97 24.5078L35.3382 31.7795L30.5 26.375Z" fill="#FFCF3C"/>
</g>
<g filter="url(#filter1_d)">
<path fill-rule="evenodd" clip-rule="evenodd" d="M1 31.3333H60V20H1V31.3333Z" fill="#1984D8"/>
</g>
<path fill-rule="evenodd" clip-rule="evenodd" d="M1 45.5H60V31.3333H1V45.5Z" fill="white"/>
</g>
</g>
<defs>
<filter id="filter0_d" x="17.8572" y="7.25" width="25.2857" height="24.5295" filterUnits="userSpaceOnUse" color-interpolation-filters="sRGB">
<feFlood flood-opacity="0" result="BackgroundImageFix"/>
<feColorMatrix in="SourceAlpha" type="matrix" values="0 0 0 0 0 0 0 0 0 0 0 0 0 0 0 0 0 0 127 0"/>
<feOffset/>
<feColorMatrix type="matrix" values="0 0 0 0 0 0 0 0 0 0 0 0 0 0 0 0 0 0 0.06 0"/>
<feBlend mode="normal" in2="BackgroundImageFix" result="effect1_dropShadow"/>
<feBlend mode="normal" in="SourceGraphic" in2="effect1_dropShadow" result="shape"/>
</filter>
<filter id="filter1_d" x="1" y="20" width="59" height="11.3333" filterUnits="userSpaceOnUse" color-interpolation-filters="sRGB">
<feFlood flood-opacity="0" result="BackgroundImageFix"/>
<feColorMatrix in="SourceAlpha" type="matrix" values="0 0 0 0 0 0 0 0 0 0 0 0 0 0 0 0 0 0 127 0"/>
<feOffset/>
<feColorMatrix type="matrix" values="0 0 0 0 0 0 0 0 0 0 0 0 0 0 0 0 0 0 0.06 0"/>
<feBlend mode="normal" in2="BackgroundImageFix" result="effect1_dropShadow"/>
<feBlend mode="normal" in="SourceGraphic" in2="effect1_dropShadow" result="shape"/>
</filter>
</defs>
</svg>
